X:1
T:À Trianon
T:A Trianon
T:Augusta Holmès
T:(Holmès)
T:Ton original en Ré
T:OpenScore (CC0)
T:OpenScore (CC0)
T:OpenScore (CC0)
T:OpenScore (CC0)
C:Holmès, Augusta
Z:(Holmès)
Z:OpenScore (CC0)
%%score 1 { ( 2 4 5 ) | ( 3 6 ) }
L:1/8
Q:1/4=92
M:3/4
K:D
V:1 treble nm="Chant"
V:2 treble nm="Piano"
V:4 treble 
V:5 treble 
V:3 treble 
V:6 treble 
V:1
"^Andantino" z6 | z6 | z6 | z6 | z6 | z6 | z6 | z6 | z6 | z6 | z6 | z6 | z6 | z6 |"^Chant" z6 | %15
w: |||||||||||||||
 z6 ||!p! d c d2 A2 |{/c} (B/A/B/c/) B2 A2 | d c d c d A |{/c} (B/A/B/c/) B2!<(! A A | %20
w: |Sui- vez- moi, Mar-|qui- * * * se, Par-|mi les par- fums et la|bri- * * * se, Vers le|
 (d3!<)! f)!>(! e d | c e d A F A | G B A2 G2!>)! |!p!({FG)} (F2 E4) | B A B2 c2 | (d4 A) A | %26
w: Tem- * ple d'A-|mour Qui nous sou- rit aux|derniers * rais du|jour, _|Sui- vez- moi, Ber-|gè- re, Par-|
 B A B G c A | (d2 A) z!<(! A A | d!<)! d f2!>(! e d | c!>)! e E z!p! (B2 | c e E2 B2 | %31
w: mi la mousse et la fou-|\- gè- re, Et les|fleurs s'ouvrant * sous vos|pas, Diront: * «d'A-|mour, la mère Est|
 c e (E2 B2) | c)"^Poco rall." (e[Q:1/4=88] AcEA |[Q:1/4=82] F) (d c2 B({cB)}A/B/ | %34
w: plus sé- vè- *|re, Et Flo- * * *|re a moins d'ap- * *|
"^A tempo"[Q:1/4=92] A4) z!p! A ||[K:F] c c c c c c |({/c} B/A/B/c/) A2- A (F |{/c} B A B d c B | %38
w: pas!» Ve-|\- nez sous l'au- bé- pi- ne|ro- * * * se, _ Moins|ro- se que ta lèvre é-|
({AB)} A2 G) z!<(! c c | d d!<)!!mf! f2!>(! e d | (^c2 A3)!>)!!p! A | %41
w: clo- se! Per- met-|\- tez qu'enfin * je re-|po- se Mon|
[Q:1/4=88]"^Rall." d ^G d[Q:1/4=82] G (d G) |"^A tempo"[Q:1/4=92] A4 z2 | z6 | z6 | z6 | %46
w: front tout près de vo- tre|cœur!||||
!p! A A A2 A A | (B/A/B/c/ B2) z"^crescendo" B | ^c c c c c c | (d/^c/d/e/ d2) d2 | %50
w: Vo- tre sein bat plus|vi- * * * te... En|vain vo- tre regard * m'é-|vi- * * * te... Ta|
!mf! f!>(! f f f e d!>)! | c2 A2!p![Q:1/4=88] A"^Rall." d |[Q:1/4=85] F2[Q:1/4=82] (G2({AG)} F) G | %53
w: main si frêle est trop pe-|\- ti- te Pour ca-|cher ta _ rou-|
"^A tempo"[Q:1/4=92] A4 z2 | z6 | z6 |[Q:1/4=88] z6[Q:1/4=85][Q:1/4=82] || %57
w: geur!||||
[K:D]!pp!"^A tempo"[Q:1/4=92] d c d z A2 |{/c} (B/A/B/c/ B2)!pp! A2 | d c d c (d A) | %60
w: Venez * donc, Mar-|qui- * * * se! Goû-|tons ensemble * * l'heure ex-|
{/c} (B/A/B/c/ B2)!f! A3/2 A/ |[Q:1/4=88]"^Rall." d3 f e d |[Q:1/4=84]!>(! (cedA!>)! F/) z/!p! A | %63
w: qui- * * * se Car l'A-|\- mour vous a con-|qui- * * * se Et|
 B2 z2[Q:1/4=80] d2 |!pp! (dc/B/ c3) d |"^A tempo"[Q:1/4=92] d4 z2 | z6 | z6 | z6 | z6 | z6 | z6 | %72
w: c'est la|fin _ _ _ du|jour!|||||||
 z6 |] %73
w: |
V:2
!p! .[dfd']2 .[dfd']2 .[dfa]2 |({/c'} b/a/b/c'/) (b2 a2) |!pp! (d'c') (d'3 a) | %3
({/c'} b/a/b/c'/) (b2 a2) |!<(! (d'f'a'f'd'a | bd'!<)!g'e'!>(!c'a) | (d'abgf{/a}g) | %7
 ([df]2 e4)!>)! |!p!!<(! (ba b2 c'2!<)!!mp! |!>(! d'4 a2)!>)! |!p!!<(! (babgc'a!<)! | %11
"_cresc." d'3 a-) a2 |!f! (d'f'a'f'd'a |"_dim." be'c'ad'a) | (bg f2({ef)} e2 |!pp! d6) || %16
!p! .[dfd']2 .[dfd']2 .[dfa]2 |({/c'} b/a/b/c'/) (b2 a2) | [dfd']2 [dfd']3 [dfa] | %19
{/c'} (b/a/b/c'/) (b2 a2) |!f!!<(! (a4!<)! ^g2 |!>(! [ca][eg] [df]2-) [df] z!>)! |!p! (GB A2 G2) | %23
 (F2 E4) |!pp!!<(! (ba b2 c'2!<)! |!mf!!>(! d'4 a2)!>)! |!f! (ba!<(!bgc'a | d'3 a-) a2 | %28
 (f2 a2!<)!!f!!>(! ^g2 | ac' e'2)!>)!!p! T^g2({fg)} | (ac' e'2) T^g2({fg)} | (ac' e'2) T^g2({fg)} | %32
"_Poco rall." a6- | a2 z2 T^g2({fg)} |"_A tempo" a4 z2 ||[K:F]!pp! [ca]2 [ca]2 [ca]2 | (b2 a4) | %37
 (B4 c2 | A2 G4) |!>(! (BA ^G4 | A6)!>)! |!>(!"_Rall." ([^Gd^g]6!>)! |"^A tempo" [A^ca]4) z2 | %43
({/c} B/A/B/c/!>(! B2 e)!>)! z |({/B} A/G/A/B/!>(! A2 d)!>)! z |"_dim."({/A} G/F/G/A/) (G2 ^c) z | %46
!pp! [Ad]!>(! (f2 e2 d)!>)! |!p! z!>(! (g2 f2!>)! e) |!p! z!>(! (b2 a2!>)! g) | %49
!mp! z!>(! (d'2 c'2!>)! b) |!mf! z!>(!!8va(! ([_a_a']2 [gg']2!>)! [ff']) | %51
 z!>(! ([aa']2 [gg']2!>)!"^Rall." [ff'] | [dd'])!8va)! z!p!!>(! ([EGd]4!>)! | %53
"^A tempo" [EA^c]4) z2 |({/^c'} =b/!p!a/!>(!b/c'/ b2 e')!>)! z |{/=b} (a/^g/a/!>(!b/ a2 d')!>)! z | %56
({/a} g/"_dim.  e   rall."^f/g/a/ g2 ^c') z ||[K:D]"^A tempo"!pp! .[dfd']2 .[dfd']2 .[dfa]2 | %58
({/c'} b/a/b/c'/) (b2 a2) |!pp! [dfd']2 [dfd']3 [dfa] |({/c'} b/a/b/c'/) (b2 a2) | %61
"_Rall." [dfa]4!f!!>(!!8va(! ([^g^g']2 | [=g=g']2 [ff']2-)!>)! [ff']!8va)! z | z2 [dg]2- [dg] z | %64
 z2!pp! [ca]2- [ca] z |"_A tempo" .[dfd']2 .[dfd']2 .[dfa]2 |({/c'} b/a/b/c'/) (b2 a2) | %67
!pp! d'b (d'3 a) |({/c'} b/a/b/c'/) (b2 a2) |"_dim." (d'f'a'f'd'a | be'c'ad'a) | (bg f2({ef)} e2 | %72
!ppp! [FAd]4) !fermata!z2 |] %73
V:3
!ped! .D2 .F2 .A2!ped-up! | .E.A, (E2 A2) |!ped! .D2 .F3 .A!ped-up! | .E.A, (E2 A2) | (F2 D3 F | %5
 G2 E3 A) | (F2 GBAB) |({/B} A/^G/A/B/) (c2 A2) | (GFGEAG) |({/G} F/E/F/G/ FEFD) | (GFGEAG) | %11
{/G} (F/E/F/G/ FABc) | d4- dF | GE A>G F2 | GB A2 A,2 |[K:bass] (D2 A,2 !fermata!D,2) || %16
 .[D,,D,]2 .[F,,F,]2 .[A,,A,]2 | .[E,,E,].[A,,,A,,] ([E,,E,]2 [A,,A,]2) | %18
!ped! .[D,,D,]2 .[F,,F,]3 .[A,,A,]!ped-up! | .[E,,E,].[A,,,A,,] ([E,,E,]2 [A,,A,]2) | (F,3 D,E,B, | %21
 A,CDF A2) | (B,G, A,2 B,C) | (D2 A,2 A,,2) |[K:treble] (GFGEAG | F/E/F/G/ FEFD) | (GFGEAG | %27
 F/E/F/G/ FABc) | (d2 B2 ed | cA E2) ([Bd]E | [Ac]E [Ac]E) ([Bd]E | [Ac]E [Ac]E) ([Bd]E | A2) (C4 | %33
 B,2 E2)[K:bass] (E,2 | A,2 E,2 A,,2) ||[K:F] F,,[K:treble] C[FA]C[FA]C | GC[FA]C[FA]C | %37
 ([DF]4 [EG]2 | F2 [CE]4) | ([B,D]2 [B,D]4 | [A,^C]6) | ([B,D]6 | ^C4) z2 | %43
[K:bass] .A,.A,.A,.A,.A,.A, | .A,.A,.A,.A,.A,.A, | .A,.A,.A,.A,.A,.A, | %46
 [F,,F,]"_crescendo"([A,D] F,)([A,D] F,).[A,D] | [G,,G,]([B,E] G,)([B,E] G,).[B,E] | %48
 [A,,A,]([^CG] A,)([CG] A,).[CG] | .[B,,B,]([D_A] .B,)([DA] .B,).[DA] | %50
 .[=B,,=B,]([D_A] .B,)([DA] .B,).[DA] | [C,C]([FA] C)([FA] C)[FA]- | [FA] z (B,4 | %53
 .A,).A,.A,.A,.A,.A, | .A,.A,.A,.A,.A,.A, | .A,.A,.A,.A,.A,.A, | .A,.A,.A,.A,.A,.A, || %57
[K:D]"_una corda"!ped! [D,,D,]2[K:treble] .[F,A,DF]2 .[A,DFA]2!ped-up! | %58
[K:bass] .[E,E].[A,,A,] ([E,E]2 [A,A]2) |!ped! [D,,D,]2[K:treble] [F,A,DF]3!ped-up! [A,DFA] | %60
[K:bass] .[E,E].[A,,A,] ([E,E]2 [A,A]2) | [F,A,DF]4[K:treble] ([B,E^GB]2 | %62
 [CEAc]2 [DFAd]2-) [DFAd] z | z2 [EGB]2- [EGB] z | z2 [A,EA]2- [A,EA] z | %65
[K:bass]"_una corda"!ped! z2 .F2!ped-up! .A2 | .E.A, (E2 A2) |!ped! z2 (F3!ped-up! A) | %68
 .E.A, (E2 A2) |[K:treble] (F6 | GE A>G F2) | (GB A2 A,2 | D2)[K:bass] A,,2 !fermata!D,,2 |] %73
V:4
 x6 | [dg]2 [dg]2 [ce]2 | [df]2 [df]3 [df] | [dg]2 [dg]2 [ce]2 | a2 a4 | g2 g4 | d2 d3 d | x6 | %8
 d2 d2 c2 | d4 d2 | d2 d2 c2 | d3 feg | f6 | e2 e2 d2 | d2 d2 [Gc]2 | [FA]6 || x6 | %17
 [dg]2 [dg]2 [ce]2 | x6 | [dg]2 [dg]2 [ce]2 | d3 fed | A2- A2- A x | D2 C2 DE | F2 C4 | d2 d2 c2 | %25
 d4 d2 | (d2 d2 c2 | d3) (feg) | x6 | x6 | x6 | x6 | z2 [Ae]4 | [Adf]2 [Ace]2 (d2 | c4) x2 || %35
[K:F] x6 | (d/c/d/e/) f4 | x6 | x6 | x6 | x6 | x6 | x6 | G2- G4 | F2- F4 | E2- E4 | F z z2 z2 | %47
 x6 | x6 | x6 | x!8va(! x5 | x6 | x!8va)! x5 | x6 | g2- g4 | ^f2- f4 | e2- e4 ||[K:D] x6 | %58
 [dg]2 [dg]2 [ce]2 | x6 | [dg]2 [dg]2 [ce]2 | x4!8va(! x2 | x5!8va)! x | x6 | x6 | x6 | %66
 [dg]2 [dg]2 [ce]2 | [df]2 [df]3 [df] | [dg]2 [dg]2 [ce]2 | a6 | e2 e2 d2 | d2 d2 [Gc]2 | x6 |] %73
V:5
 x6 | x6 | x6 | x6 | x6 | x6 | x6 | x6 | x6 | x6 | x6 | x6 | x6 | x6 | x6 | x6 || x6 | x6 | x6 | %19
 x6 | A4 ^G2 | x6 | x6 | x6 | x6 | x6 | x6 | x6 | x6 | x6 | x6 | x6 | x6 | x6 | x6 ||[K:F] x6 | %36
 x6 | x6 | x6 | x6 | x6 | x6 | x6 | x6 | x6 | x6 | x6 | x6 | x6 | x6 | x!8va(! x5 | x6 | %52
 x!8va)! x5 | x6 | x6 | x6 | x6 ||[K:D] x6 | x6 | x6 | x6 | x4!8va(! x2 | x5!8va)! x | x6 | x6 | %65
 x6 | x6 | x6 | x6 | x6 | x6 | x6 | x6 |] %73
V:6
 x6 | x6 | x6 | x6 | x6 | x6 | x6 | x6 | x6 | x6 | x6 | x6 | x6 | x6 | x6 |[K:bass] x6 || x6 | x6 | %18
 x6 | x6 | x6 | x6 | x6 | x6 |[K:treble] x6 | x6 | x6 | x6 | x6 | x6 | x6 | x6 | x6 | %33
 x4[K:bass] x2 | x6 ||[K:F] x[K:treble] x5 | x6 | x6 | x6 | x6 | x6 | x6 | A,A,A,A,A,A, | %43
[K:bass] A,,4 z2 | A,,4 z2 | A,,4 z2 | x6 | x6 | x6 | x6 | x6 | x6 | D x x4 | x6 | A,,4 z2 | %55
 A,,4 z2 | A,,4 z2 ||[K:D] x2[K:treble] x4 |[K:bass] x6 | x2[K:treble] x4 |[K:bass] x6 | %61
 x4[K:treble] x2 | x6 | x6 | x6 |[K:bass] [D,,D,]2- [D,,D,] z z2 | x6 | [D,,D,]2- [D,,D,] z z2 | %68
 x6 |[K:treble] x6 | x6 | x6 | x2[K:bass] x4 |] %73

